app/images/icons/truck.svg

<svg xmlns="http://www.w3.org/2000/svg" preserveAspectRatio="xMidYMid" width="72.375" height="51.38"><circle cx="55.5" cy="34.505" r="16.875" fill="#a3bbc8"/><path d="M41.62 27.459a.996.996 0 011.002.99c0 .547-.449.99-1.002.99H26.655a.996.996 0 01-1.002-.99c0-.547.449-.99 1.002-.99H41.62zM24.518 20.99c-.257 0-.513-.097-.709-.29l-5.344-5.281a.98.98 0 010-1.4 1.012 1.012 0 011.417 0l4.636 4.58 8.911-8.804a1.01 1.01 0 011.417 0 .98.98 0 010 1.4l-9.62 9.505c-.195.193-.452.29-.708.29zm38.48 12.673h-3.276l.002.066c0 3.458-2.847 6.27-6.346 6.27-3.5 0-6.347-2.812-6.347-6.27l.002-.066H24.449l.002.066c0 3.458-2.847 6.27-6.347 6.27-3.499 0-6.346-2.812-6.346-6.27l.002-.066H6.347c-1.142 0-2.071-.918-2.071-2.046v-2.179H1.002A.996.996 0 010 28.448c0-.547.449-.99 1.002-.99h9.62a.996.996 0 011.002.99c0 .547-.449.99-1.002.99H6.28v2.179c0 .036.03.066.066.066h5.761a6.35 6.35 0 015.997-4.225 6.351 6.351 0 015.998 4.225h20.791v-7.459c0-.547.449-.99 1.002-.99a.996.996 0 011.002.99v7.459h.483a6.35 6.35 0 015.998-4.224 6.349 6.349 0 015.997 4.224h2.621v-4.356H60.86c-1.732 0-3.14-1.392-3.14-3.103v-2.112c0-.547.449-.99 1.002-.99h3.116a3.274 3.274 0 00-3.114-2.244H46.898V20c0 .547-.449.99-1.003.99a.996.996 0 01-1.002-.99V2.046a.066.066 0 00-.066-.066H6.346a.066.066 0 00-.066.066V20c0 .547-.449.99-1.002.99A.996.996 0 014.275 20V2.046C4.275.918 5.204 0 6.346 0h38.481c1.142 0 2.071.918 2.071 2.046v2.178h7.549c2.32 0 4.208 1.866 4.208 4.159v1.056c0 .476-.34.873-.793.968l1.658 6.55c2.533.381 4.48 2.547 4.48 5.155v10.561c0 .547-.449.99-1.002.99zm-44.894-4.224c-2.394 0-4.342 1.924-4.342 4.29s1.948 4.291 4.342 4.291c2.395 0 4.343-1.925 4.343-4.291 0-2.366-1.948-4.29-4.343-4.29zm35.274 0c-2.395 0-4.343 1.924-4.343 4.29s1.948 4.291 4.343 4.291c2.394 0 4.342-1.925 4.342-4.291 0-2.366-1.948-4.29-4.342-4.29zm3.273-21.056c0-1.201-.989-2.179-2.204-2.179h-7.549v2.245h9.753v-.066zm-.849 2.046h-8.904v6.469h10.541l-1.637-6.469zm6.194 12.673h-2.272v1.122c0 .619.51 1.122 1.136 1.122h1.136v-2.244zm-8.618 12.674c-1.142 0-2.071-.918-2.071-2.047 0-1.128.929-2.046 2.071-2.046 1.142 0 2.071.918 2.071 2.046 0 1.129-.929 2.047-2.071 2.047zm-35.274 0c-1.142 0-2.071-.918-2.071-2.047 0-1.128.929-2.046 2.071-2.046 1.142 0 2.071.918 2.071 2.046 0 1.129-.929 2.047-2.071 2.047zm-1.135-11.552c0 .547-.449.99-1.002.99H3.14a.996.996 0 01-1.002-.99c0-.547.448-.99 1.002-.99h12.827a.996.996 0 011.002.99z" fill="#243f4d" fill-rule="evenodd"/></svg>

<svg xmlns="http://www.w3.org/2000/svg" xmlns:xlink="http://www.w3.org/1999/xlink" preserveAspectRatio="xMidYMid" width="72.375" height="51.38" viewBox="0 0 72.375 51.38">
  <defs>
    <style>
      .cls-1 {
        fill: #a3bbc8;
      }

      .cls-2 {
        fill: #243f4d;
        fill-rule: evenodd;
      }
    </style>
  </defs>
  <g>
    <circle cx="55.5" cy="34.505" r="16.875" class="cls-1"/>
    <path d="M41.620,27.459 C42.173,27.459 42.622,27.902 42.622,28.449 C42.622,28.996 42.173,29.439 41.620,29.439 L26.655,29.439 C26.102,29.439 25.653,28.996 25.653,28.449 C25.653,27.902 26.102,27.459 26.655,27.459 L41.620,27.459 ZM24.518,20.990 C24.261,20.990 24.005,20.893 23.809,20.700 L18.465,15.419 C18.073,15.033 18.073,14.406 18.465,14.019 C18.856,13.633 19.490,13.633 19.882,14.019 L24.518,18.599 L33.429,9.795 C33.820,9.408 34.455,9.408 34.846,9.795 C35.238,10.181 35.238,10.808 34.846,11.195 L25.226,20.700 C25.031,20.893 24.774,20.990 24.518,20.990 ZM62.998,33.663 L59.722,33.663 C59.723,33.685 59.724,33.707 59.724,33.729 C59.724,37.187 56.877,39.999 53.378,39.999 C49.878,39.999 47.031,37.187 47.031,33.729 C47.031,33.707 47.033,33.685 47.033,33.663 L24.449,33.663 C24.449,33.685 24.451,33.707 24.451,33.729 C24.451,37.187 21.604,39.999 18.104,39.999 C14.605,39.999 11.758,37.187 11.758,33.729 C11.758,33.707 11.759,33.685 11.760,33.663 L6.347,33.663 C5.205,33.663 4.276,32.745 4.276,31.617 L4.276,29.438 L1.002,29.438 C0.449,29.438 -0.000,28.995 -0.000,28.448 C-0.000,27.901 0.449,27.458 1.002,27.458 L10.622,27.458 C11.176,27.458 11.624,27.901 11.624,28.448 C11.624,28.995 11.175,29.438 10.622,29.438 L6.280,29.438 L6.280,31.617 C6.280,31.653 6.310,31.683 6.346,31.683 L12.107,31.683 C12.967,29.227 15.330,27.458 18.104,27.458 C20.879,27.458 23.241,29.227 24.102,31.683 L44.893,31.683 L44.893,24.224 C44.893,23.677 45.342,23.234 45.895,23.234 C46.449,23.234 46.897,23.677 46.897,24.224 L46.897,31.683 L47.380,31.683 C48.240,29.227 50.603,27.459 53.378,27.459 C56.152,27.459 58.515,29.227 59.375,31.683 L61.996,31.683 L61.996,27.327 L60.860,27.327 C59.128,27.327 57.720,25.935 57.720,24.224 L57.720,22.112 C57.720,21.565 58.169,21.122 58.722,21.122 L61.838,21.122 C61.414,19.822 60.179,18.879 58.724,18.878 C58.723,18.878 58.722,18.878 58.721,18.878 C58.720,18.878 58.720,18.878 58.719,18.878 L46.898,18.878 L46.898,20.000 C46.898,20.547 46.449,20.990 45.895,20.990 C45.342,20.990 44.893,20.547 44.893,20.000 L44.893,2.046 C44.893,2.009 44.863,1.980 44.827,1.980 L6.346,1.980 C6.310,1.980 6.280,2.009 6.280,2.046 L6.280,20.000 C6.280,20.547 5.831,20.990 5.278,20.990 C4.724,20.990 4.275,20.547 4.275,20.000 L4.275,2.046 C4.275,0.918 5.204,-0.000 6.346,-0.000 L44.827,-0.000 C45.969,-0.000 46.898,0.918 46.898,2.046 L46.898,4.224 L54.447,4.224 C56.767,4.224 58.655,6.090 58.655,8.383 L58.655,9.439 C58.655,9.915 58.315,10.312 57.862,10.407 L59.520,16.957 C62.053,17.338 64.000,19.504 64.000,22.112 L64.000,32.673 C64.000,33.220 63.551,33.663 62.998,33.663 ZM18.104,29.439 C15.710,29.439 13.762,31.363 13.762,33.729 C13.762,36.095 15.710,38.020 18.104,38.020 C20.499,38.020 22.447,36.095 22.447,33.729 C22.447,31.363 20.499,29.439 18.104,29.439 ZM53.378,29.439 C50.983,29.439 49.035,31.363 49.035,33.729 C49.035,36.095 50.983,38.020 53.378,38.020 C55.772,38.020 57.720,36.095 57.720,33.729 C57.720,31.363 55.772,29.439 53.378,29.439 ZM56.651,8.383 C56.651,7.182 55.662,6.204 54.447,6.204 L46.898,6.204 L46.898,8.449 L56.651,8.449 L56.651,8.383 ZM55.802,10.429 L46.898,10.429 L46.898,16.898 L57.439,16.898 L55.802,10.429 ZM61.996,23.102 L59.724,23.102 L59.724,24.224 C59.724,24.843 60.234,25.346 60.860,25.346 L61.996,25.346 L61.996,23.102 ZM53.378,35.776 C52.236,35.776 51.307,34.858 51.307,33.729 C51.307,32.601 52.236,31.683 53.378,31.683 C54.520,31.683 55.449,32.601 55.449,33.729 C55.449,34.858 54.520,35.776 53.378,35.776 ZM18.104,35.776 C16.962,35.776 16.033,34.858 16.033,33.729 C16.033,32.601 16.962,31.683 18.104,31.683 C19.246,31.683 20.175,32.601 20.175,33.729 C20.175,34.858 19.246,35.776 18.104,35.776 ZM16.969,24.224 C16.969,24.771 16.520,25.214 15.967,25.214 L3.140,25.214 C2.586,25.214 2.138,24.771 2.138,24.224 C2.138,23.677 2.586,23.234 3.140,23.234 L15.967,23.234 C16.520,23.234 16.969,23.677 16.969,24.224 Z" class="cls-2"/>
  </g>
</svg>
